X:3
T:Teevernan's Whish so G, Thed.
Z:id:hn- aten if #8.).
Z:id:hn-reel-2d
Z:id:hn-rnes (1918)
H:Bersc Heil Moraie Muctte Keente ol cergin Kege tis Hold
R:rover
R:Matrey Lfgit, The
R:polka-85
M:C|
K:Bdor
igfed .A2g|
~g2dB GGFD:|2 BEFG FDEF|D2BA B2BE|
(GBdg Ae~f2ge |
BF~B2 BEEFB|GABcd d2BA:|2 cdce d2dB ||

$
